Obsidian-SemiLight/actions/24s/edit-clone.svg

<svg viewBox="0 0 24 24" xmlns="http://www.w3.org/2000/svg"><path d="m4 3v14h2v2h6v-1h-5v-12h10v5h1v-6h-2v-2zm1 1h10v1h-9v11h-1zm11 8a2 2 0 0 0 -2 2v2h-1v3h6v-3h-1v-2a2 2 0 0 0 -2-2zm0 1a1 1 0 0 1 1 1v2h-2v-2a1 1 0 0 1 1-1z" fill="#4d4d4d" transform="translate(1 1)"/></svg>

<svg xmlns="http://www.w3.org/2000/svg" viewBox="0 0 24 24">
  <defs id="defs3051">
    <style type="text/css" id="current-color-scheme">
      .ColorScheme-Text {
        color:#4d4d4d;
      }
      </style>
  </defs>
 <path 
    style="fill:currentColor;fill-opacity:1;stroke:none" 
	d="M 4 3 L 4 17 L 6 17 L 6 19 L 12 19 L 12 18 L 7 18 L 7 6 L 17 6 L 17 11 L 18 11 L 18 5 L 16 5 L 16 3 L 4 3 z M 5 4 L 15 4 L 15 5 L 6 5 L 6 16 L 5 16 L 5 4 z M 16 12 A 2 2 0 0 0 14 14 L 14 16 L 13 16 L 13 19 L 19 19 L 19 16 L 18 16 L 18 14 A 2 2 0 0 0 16 12 z M 16 13 A 1 1 0 0 1 17 14 L 17 16 L 15 16 L 15 14 A 1 1 0 0 1 16 13 z "
    class="ColorScheme-Text"
     transform="translate(1,1)"
    />  
</svg>
